X: 82
T: Tommy Peoples'
R: mazurka
M: 3/4
L: 1/8
K: Dmaj
|:FG|AF A2 dc|BG B2 ef|ge cA Bc|BA F2 FG|
AF A2 dc|BG B2 ef|ge cA Bc|d4:|
|:fg|af dA cd|c2 B2 ef|ge cA Bc|BA F2 fg|
af dA cd|c2 B2 ef|ge cA Bc|1 d4 :|2 d6 |]
F: https://thesession.org/tunes/1323#setting1323

